_astro/reference.DYdt2l37.svg

<?xml version="1.0" encoding="utf-8"?>
<!-- Uploaded to: SVG Repo, www.svgrepo.com, Generator: SVG Repo Mixer Tools -->
<svg fill="#000000" width="800px" height="800px" viewBox="0 0 32 32" id="icon" xmlns="http://www.w3.org/2000/svg">
  <defs>
    <style>
      .cls-1 {
        fill: none;
      }
    </style>
  </defs>
  <title>notebook--reference</title>
  <polygon points="4 20 4 22 7.586 22 2 27.586 3.414 29 9 23.414 9 27 11 27 11 20 4 20" />
  <rect x="19" y="10" width="7" height="2" />
  <rect x="19" y="15" width="7" height="2" />
  <rect x="19" y="20" width="7" height="2" />
  <path
    d="M28,5H4A2.002,2.002,0,0,0,2,7V17H4V7H15V27H28a2.002,2.002,0,0,0,2-2V7A2.002,2.002,0,0,0,28,5ZM17,25V7H28l.0015,18Z" />
  <rect id="_Transparent_Rectangle_" data-name="&lt;Transparent Rectangle&gt;" class="cls-1" width="32" height="32" />
</svg>

<svg xmlns="http://www.w3.org/2000/svg" width="800" height="800" viewBox="0 0 32 32"><path d="M4 20v2h3.586L2 27.586 3.414 29 9 23.414V27h2v-7zm15-10h7v2h-7zm0 5h7v2h-7zm0 5h7v2h-7z"/><path d="M28 5H4a2 2 0 0 0-2 2v10h2V7h11v20h13a2 2 0 0 0 2-2V7a2 2 0 0 0-2-2M17 25V7h11l.002 18Z"/><path d="M0 0h32v32H0z" data-name="&lt;Transparent Rectangle&gt;" style="fill:none"/></svg>
